public/favicon.svg

<svg width="81" height="99" viewBox="0 0 81 99" fill="none" xmlns="http://www.w3.org/2000/svg">
<path d="M40.6869 0L0.921875 12.6221L1.36367 14.4413L1.91592 16.712C1.93541 16.7916 3.82604 24.6968 4.53909 33.9632C4.55371 34.2864 4.57158 34.6454 4.58944 35.0352C4.71289 37.621 4.9013 41.529 4.76486 43.4423V43.4813L4.75837 43.5755V43.6145C4.74375 43.9913 4.43839 52.9004 4.06481 56.7564C4.03882 57.0292 4.00796 57.3232 3.97385 57.6383L3.9706 57.6627C3.72047 60.026 3.34202 63.5977 3.78219 67.5707C4.31332 72.3784 5.9327 76.6762 8.59323 80.3454C15.917 90.4467 29.5461 94.3709 31.0762 94.785C34.6788 95.7612 37.9533 97.4667 38.3886 97.7103L38.9619 98.0449L39.433 98.3194L40.6707 99L41.9083 98.3194L42.3794 98.0449L42.9527 97.7103C43.388 97.4667 46.8477 95.7531 50.4503 94.7769C51.9803 94.3627 65.7946 90.4467 73.1184 80.3454C75.7789 76.6762 77.3967 72.3784 77.9295 67.5707C78.368 63.5977 77.9912 60.026 77.741 57.6627L77.7378 57.6383C77.7053 57.3248 77.6728 57.0309 77.6468 56.7564C77.2733 52.9004 76.9679 43.9913 76.9549 43.6145V43.5755L76.9484 43.4813V43.4423C76.8103 41.529 76.9971 37.621 77.1206 35.0352C77.1401 34.6454 77.1563 34.2864 77.1709 33.9632C77.884 24.6968 79.7746 16.7899 79.7941 16.712L80.3463 14.4413L80.7881 12.6221L40.6869 0Z" fill="#010101"/>
<path d="M40.6689 95.5501L39.8552 95.0774C39.2704 94.7509 35.7702 92.9334 31.8638 91.876C31.2953 91.7217 17.866 87.9989 11.0344 78.5766C8.68407 75.3362 7.25311 71.5225 6.78045 67.2409C6.37763 63.5928 6.73497 60.216 6.97049 57.981L6.97861 57.8998C7.01109 57.5977 7.04033 57.3135 7.06632 57.0487C7.45127 53.0758 7.75663 44.1099 7.76962 43.7298L7.77449 43.6486C7.91093 41.7141 7.77124 38.4039 7.60232 34.8939L7.54547 33.7358C6.82268 24.3313 4.93042 16.3514 4.84921 16.0151L4.51624 14.6426L40.69 3.1413L77.1919 14.6426L76.8606 16.0022C76.781 16.3351 74.8839 24.3411 74.1611 33.7358L74.1578 33.7829L74.1058 34.8955C73.9385 38.4006 73.7989 41.706 73.9337 43.6405L73.9385 43.7298C73.9515 44.1099 74.2585 53.0936 74.6418 57.0503C74.6694 57.3313 74.7019 57.6351 74.736 57.9583L74.7393 57.9859C74.9748 60.2193 75.3322 63.5945 74.9293 67.2409C74.4567 71.5225 73.0241 75.3362 70.6754 78.5766C63.8438 87.9989 50.2293 91.7136 49.6608 91.8679C45.7528 92.9269 42.0658 94.7525 41.4827 95.0774L40.6689 95.5501ZM9.70573 43.8029C9.68949 44.2967 9.3825 53.2285 8.99431 57.2339C8.96832 57.5035 8.93746 57.7942 8.90497 58.1045L8.89685 58.1824C8.66946 60.3362 8.32511 63.588 8.70519 67.0265C9.14049 70.9702 10.4529 74.4737 12.6018 77.438C19.0355 86.3113 31.8281 89.857 32.369 90.0032C36.2379 91.0509 39.7463 92.8262 40.6673 93.3135C41.5899 92.8262 45.4686 91.0509 49.3392 90.0032C49.8801 89.857 62.6711 86.3113 69.1048 77.438C71.2553 74.4737 72.566 70.9702 73.0013 67.0265C73.3814 63.588 73.0387 60.3395 72.8113 58.1889L72.8081 58.1613C72.7723 57.8316 72.7398 57.523 72.7122 57.2355C72.3257 53.2463 72.017 44.3064 72.0008 43.8029V43.7639C71.8579 41.7239 71.9992 38.36 72.1697 34.7997L72.2298 33.5831C72.8811 25.0996 74.481 17.7157 74.8855 15.9388L40.6803 5.09203L6.82268 15.9404C7.22225 17.6914 8.82376 25.0704 9.47834 33.5847L9.48483 33.6741L9.53843 34.7997C9.70898 38.3649 9.85029 41.7336 9.70898 43.7753V43.8029H9.70573Z" fill="#FAB60A"/>
<path d="M42.0594 31.6161V31.6649L42.0692 42.2761C42.0692 42.2761 52.9874 42.497 58.7211 43.137H58.7341V32.6281L54.6539 32.2594H54.6312L58.7211 26.823L58.7341 26.8067V18.0422L50.9474 27.7114L42.0692 12.3525V12.4239L42.0594 24.0033L46.6106 31.7412H46.5684L42.0594 31.6145V31.6161Z" fill="#FAB60A"/>
<path d="M27.6636 53.1992L27.6684 53.2074L30.6896 58.8874L32.5932 59.6086L36.4329 53.6004L36.4459 53.5809V51.9096L32.1319 52.902L28.7323 50.5127L27.6636 53.1992Z" fill="#FAB60A"/>
<path d="M30.7465 45.2063L29.694 47.9399H29.7005L34.9322 47.7921L39.8277 50.209L40.1233 59.0742C41.6582 59.0742 41.9912 58.2962 42.0546 58.0883V58.085C42.0643 58.0541 42.0675 58.0363 42.0675 58.0363C42.0675 58.0363 44.1304 58.9296 44.9717 58.7233C45.8131 58.5203 46.2191 57.2225 46.2191 57.2225L48.6734 60.0812V64.9459L48.6604 64.9329L44.2603 60.6465L40.6122 62.3877L36.982 60.6465L32.5608 64.954V70.2945L34.9257 67.6145L40.6122 65.2382L46.3182 67.6145L48.6831 70.2945L52.367 65.6345L52.3702 65.6297L53.936 57.9339L50.5559 58.8809L50.5397 58.8858L53.5462 53.2333L53.564 53.1992L52.4953 50.5127L49.0957 52.902L44.7849 51.9096V53.5793L44.7719 53.5923L43.7779 54.5831L41.4195 50.2415L41.4016 50.2074L46.2971 47.7905L51.5045 47.9367H51.537L50.4844 45.2047C50.4844 45.2047 45.5288 44.5939 40.6122 44.5939C35.6956 44.5939 30.753 45.2047 30.753 45.2047L30.7465 45.2063Z" fill="#FAB60A"/>
<path d="M45.6896 50.0969V50.4543L47.845 51.0081L49.1509 49.9264L49.1834 49.8988L48.8585 49.5366L45.6896 50.0498V50.0969Z" fill="#FAB60A"/>
<path d="M22.5797 32.6329V43.1435C28.2386 42.51 38.9652 42.2859 39.2316 42.281H39.2446L39.2543 31.6194L34.7226 31.7444H34.7064L39.2413 24.0308L39.2543 24.0097L39.2446 12.3589L30.3696 27.7179L22.5797 18.0455V26.8116L26.6858 32.2593L26.6387 32.2642L22.5797 32.6313V32.6329Z" fill="#FAB60A"/>
<path d="M20.8953 55.1224L18.8488 64.8744L40.6203 86.6459L62.5071 64.7591L62.5266 64.7396L60.407 55.1094L60.4086 55.2263L60.5661 63.6708L60.5531 63.6838L48.1 76.1354V73.9361L45.3631 70.0558L40.6105 68.1262L35.8758 70.0558L33.139 73.9361V73.967V76.1354L33.126 76.1224L20.6387 63.6351L20.9083 55.0606L20.8953 55.1224Z" fill="#FAB60A"/>
<path d="M35.5364 50.4575L35.5494 50.4543V50.0498L32.3805 49.5366L32.0557 49.8988L32.0735 49.9134L33.3941 51.0081L35.5364 50.4575Z" fill="#FAB60A"/>
<path d="M55.4416 18.8527L55.4968 18.7829L49.911 21.3898L49.9305 21.4239L51.3761 23.9058L55.4416 18.8527Z" fill="#FAB60A"/>
<path d="M31.3767 21.4369L31.401 21.3931L25.8185 18.7861L25.8899 18.8755L29.936 23.909L31.3767 21.4369Z" fill="#FAB60A"/>
</g>
<defs>
<clipPath id="clip0_635_35305">
<rect width="79.8663" height="99" fill="white" transform="translate(0.921875)"/>
</clipPath>
</defs>
</svg>

<svg xmlns="http://www.w3.org/2000/svg" width="81" height="99" fill="none"><g clip-path="url(#a)"><path fill="#010101" d="M40.687 0 .922 12.622l.442 1.82.552 2.27c.02.08 1.91 7.985 2.623 17.251.015.323.033.682.05 1.072.124 2.586.312 6.494.176 8.407v.04l-.007.093v.04c-.014.376-.32 9.285-.693 13.141-.026.273-.057.567-.091.882l-.003.025c-.25 2.363-.629 5.935-.189 9.908.531 4.807 2.15 9.105 4.811 12.774 7.324 10.102 20.953 14.026 22.483 14.44 3.603.976 6.877 2.682 7.313 2.925l.573.335.471.274 1.238.681 1.237-.68.471-.275.574-.335c.435-.243 3.895-1.957 7.497-2.933 1.53-.414 15.345-4.33 22.668-14.432 2.66-3.669 4.279-7.967 4.812-12.774.438-3.973.061-7.545-.189-9.908l-.003-.025c-.033-.313-.065-.607-.091-.882-.374-3.856-.68-12.765-.692-13.142v-.038l-.007-.095v-.039c-.138-1.913.05-5.821.173-8.407.02-.39.035-.749.05-1.072.713-9.266 2.604-17.173 2.623-17.251l.552-2.27.442-1.82L40.687 0Z"/><path fill="#FAB60A" d="m40.669 95.55-.814-.473c-.585-.326-4.085-2.144-7.991-3.201-.569-.154-13.998-3.877-20.83-13.3-2.35-3.24-3.78-7.053-4.254-11.335-.402-3.648-.045-7.025.19-9.26l.009-.081c.032-.302.061-.587.087-.851.385-3.973.69-12.94.704-13.32l.004-.08c.137-1.935-.003-5.245-.172-8.755l-.057-1.158C6.823 24.33 4.93 16.35 4.85 16.016l-.333-1.373L40.69 3.14l36.502 11.502-.331 1.36c-.08.332-1.977 8.338-2.7 17.733l-.003.047-.052 1.112c-.167 3.506-.307 6.811-.172 8.745l.005.09c.013.38.32 9.364.703 13.32.027.281.06.585.094.908l.003.028c.236 2.233.593 5.608.19 9.255-.472 4.281-1.905 8.095-4.254 11.336-6.831 9.422-20.446 13.137-21.014 13.29-3.908 1.06-7.595 2.885-8.178 3.21l-.814.473ZM9.706 43.803c-.017.494-.323 9.425-.712 13.43-.026.27-.057.561-.089.872l-.008.077c-.228 2.154-.572 5.406-.192 8.844.435 3.944 1.748 7.448 3.897 10.412 6.433 8.873 19.226 12.419 19.767 12.565 3.869 1.048 7.377 2.823 8.298 3.31.923-.487 4.802-2.262 8.672-3.31.541-.146 13.332-3.692 19.766-12.565 2.15-2.964 3.461-6.468 3.896-10.412.38-3.438.038-6.686-.19-8.837l-.003-.028c-.036-.33-.068-.638-.096-.925-.386-3.99-.695-12.93-.711-13.433v-.04c-.143-2.04-.002-5.403.169-8.963l.06-1.217c.651-8.483 2.251-15.867 2.655-17.644L40.68 5.092 6.823 15.94c.4 1.751 2 9.13 2.655 17.645l.007.09.053 1.125c.171 3.565.312 6.934.171 8.975v.028h-.003Z"/><path fill="#FAB60A" d="M42.06 31.616v.049l.01 10.611s10.917.221 16.651.861h.013V32.628l-4.08-.369h-.023l4.09-5.436.013-.016v-8.765l-7.787 9.67-8.878-15.36v.072l-.01 11.58 4.552 7.737h-.043l-4.509-.127v.002ZM27.664 53.2l.004.007 3.022 5.68 1.903.722 3.84-6.009.013-.02v-1.67l-4.314.992-3.4-2.39-1.068 2.687Z"/><path fill="#FAB60A" d="m30.747 45.206-1.053 2.734h.007l5.231-.148 4.896 2.417.295 8.865c1.535 0 1.868-.778 1.932-.986v-.003c.01-.03.013-.049.013-.049s2.062.894 2.904.687c.841-.203 1.247-1.5 1.247-1.5l2.454 2.858v4.865l-.013-.013-4.4-4.287-3.648 1.742-3.63-1.741-4.421 4.307v5.34l2.365-2.68 5.686-2.376 5.706 2.377 2.365 2.68 3.684-4.66.003-.005 1.566-7.696-3.38.947-.016.005 3.006-5.653.018-.034-1.069-2.686-3.4 2.389-4.31-.992v1.67l-.013.012-.994.991-2.358-4.341-.018-.035 4.895-2.416 5.208.146h.032l-1.053-2.732s-4.955-.611-9.872-.611c-4.916 0-9.859.61-9.859.61l-.006.002Z"/><path fill="#FAB60A" d="M45.69 50.097v.357l2.155.554 1.306-1.082.032-.027-.325-.362-3.168.513v.047ZM22.58 32.633v10.51c5.659-.633 16.385-.857 16.652-.862h.013l.01-10.662-4.532.125h-.017l4.535-7.713.013-.021-.01-11.651-8.874 15.359-7.79-9.672v8.766l4.106 5.447-.047.005-4.06.367v.002ZM20.895 55.122l-2.046 9.752L40.62 86.646l21.887-21.887.02-.02-2.12-9.63.002.117.157 8.445-.013.013L48.1 76.135v-2.199l-2.737-3.88-4.752-1.93-4.735 1.93-2.737 3.88V76.135l-.013-.013-12.487-12.487.27-8.574-.014.061ZM35.536 50.458l.013-.004v-.404l-3.169-.513-.324.362.018.014 1.32 1.095 2.142-.55ZM55.442 18.853l.055-.07-5.586 2.607.02.034 1.445 2.482 4.066-5.053Z"/><path fill="#FAB60A" d="m31.377 21.437.024-.044-5.582-2.607.07.09 4.047 5.033 1.44-2.472Z"/></g><defs><clipPath id="a"><path fill="#fff" d="M.922 0h79.866v99H.922z"/></clipPath></defs></svg>
